X:1
T:The greedy Hawk
T:William Byrd (c.1540-1623)
T:The greedy Hawk
T:© Choral Public Domain Library 2010
T:© Choral Public Domain Library 2010
T:© Choral Public Domain Library 2010
T:© Choral Public Domain Library 2010
C:William Byrd (c.1540-1623)
Z:© Choral Public Domain Library 2010
%%score [ 1 2 3 ]
L:1/8
M:4/4
K:C
V:1 treble nm="Soprano" snm="S."
V:2 treble nm="Alto" snm="A."
V:3 treble-8 transpose=-12 nm="Tenor" snm="T."
V:1
 [Cg]2 |[M:4/2] G8 E6 C2 | G8 z4 E4 | F2 G2 A6 G2 F2 E2 | F8 E8 | D8 G8- | G8 z4 D4 | %7
w: |The gree- dy|Hawk, with|sud- den sight of _ _|_ lure,|of lure,|_ with|
 E2 F2 G4 z4 G4 | A2 B2 c8 B4 | A8 z4 d4 | B16 | z4 c4 G8 | z8 z4 E4 | F4 G4 A8 | G4 B6 E2 A4- | %15
w: sud- den sight, with|sud- den sight of|lure doth|stoop,|doth stoop|in|hope to have|her wish- ed _|
 A4 ^G4 A8 | z8 z4 d4 | B6 G2 d3 c B2 A2 | G8 B8 | c4 e4 d8 | z4 d4 B8- | B4 c4 B8 | A4 A6 G2 E4 | %23
w: _ _ prey,|so|ma- ny men do _ _|stoop, to|sights un- sure,|to sights|_ un- sure,|to sights un- *|
 ^F8 z8 | z4 G4 B3 d c4 | B8 E4 A4- | A4 G4 c6 B2 | G4 A4 B6 A2 | G2 A2 B6 A2 G4- | G4 ^F4 G8- | %30
w: sure,|and cour- te- ous|speech doth keep|_ them at the|bay, and cour- teous|speech doth keep them at|_ the bay,|
 G8 z4 D4 | G4 A4 B8 | z8 z4 A4 | B4 c4 d8 | z4 c4 B6 G2 | c4 A4 G4 B4 | E8 z4 E4 | G16 | %38
w: _ let|them be- ware,|let|them be- ware|lest friend- ly|looks be like, be|like the|lure,|
 z4 E4 A4 B4 | c6 Bc d6 c2 | B2 A2 G2 F2 E4 A2 B2 | c8 z4 G4- | G4 c8 d4 | e2 f2 g6 f2 e2 d2 | %44
w: where- at the|soar- * * ing _|_ _ _ _ Hawk did _|strike, where-|* at the|soar- * ing _ _ _|
 c2 B2 A2 G2 A2 B2 c4- | c4 A4 B6 G2 | A4 B4 c8 | z8 z4 A4- | A4 B8 c4 | d2 e2 f6 e2 d2 c2 | %50
w: _ _ _ _ _ _ Hawk|_ did strike, did|_ _ strike,|where-|* at the|soar- * ing _ _ _|
 B2 A2 G2 A2 B2 c2 d4- | d2 c2 A6 B2 c4- | c4 B4 | !fermata!c16 |] %54
w: _ _ _ _ _ _ Hawk,|_ the soar- ing Hawk|_ did|strike.|
V:2
 [F,c]2 |[M:4/2] z8 G8 | E6 C2 G8 | z4 C8 A,4- | A,4 F,4 C4 A,4 | B,2 C2 D6 B,2 C2 D2 | %6
w: |The|gree- dy Hawk|the gree-|* dy Hawk with|sud- den sight of _ _|
 E2 B,2 C4 B,8 | z4 B,4 C2 D2 E4 | z2 D2 E6 F2 G4- | G4 ^F4 G8 | z4 G4 D8 | E4 A,4 B,4 C4- | %12
w: _ _ _ lure,|with sud- den sight,|with sud- den sight|_ of lure,|doth stoop,|doth stoop, in hope|
 C4 B,4 C8 | z4 B,4 C4 D4 | E6 D2 C4 C4 | B,8 z4 D4 | B,6 G,2 D3 C B,2 A,2 | G,8 B,4 D4- | %18
w: _ to have,|in hope to|have her wish- ed|prey, so|ma- ny men do _ _|stoop, to sights|
 D2 C2 E4 D4 G4 | E6 C2 G4 G4 | ^F8 z4 G4 | D4 E4 D8 | F4 D8 ^C4 | D4 A,4 B,3 D C4 | B,8 D4 E4- | %25
w: _ un- * sure, so|ma- ny men do|stoop, to|sights un- sure,|to sights un-|sure, and cour- te- ous|speech doth keep|
 E2 D2 G8 F4 | E16 | z8 z4 G,4 | B,6 G,2 D4 B,4 | A,8 z4 B,4 | D4 E4 G6 D2 | E4 ^F4 G8 | %32
w: _ them at the|bay,|doth|keep them at the|bay, let|them be- ware, let|them be- ware,|
 z4 G4 ^F6 D2 | G4 E4 D4 D4 | E6 ^F2 G8 | z4 C4 B,6 G,2 | C8 A,8 | G,8 z4 G,4 | C8 z8 | %39
w: lest friend- ly|looks be like, let|them be- ware|lest friend- ly|looks be|like the|lure,|
 z8 z4 B,4- | B,4 C8 D4 | E2 F2 G6 F2 E2 D2 | C2 B,2 A,2 G,2 A,4 B,4 | C4 E4 F4 G4 | %44
w: where-|* at the|soar- * ing _ _ _|_ _ _ _ Hawk did|strike, where- at the|
 A2 B2 c6 B2 A2 G2 | F2 E2 D2 C2 D4 E4 | D8 z4 A,4 | C6 B,C D2 E2 F4- | %48
w: soar- * ing _ _ _|_ _ _ _ Hawk did|strike, where-|at the _ soar- * ing|
 F2 E2 D2 C2 B,2 A,2 G,2 A,2 | B,2 C2 D4 C4 F4- | F4 E4 D2 C2 B,2 C2 | D2 E2 F2 G2 F2 E2 D2 C2 | %52
w: _ _ _ _ _ _ _ _|* * Hawk did strike,|_ the soar- * * *|* * ing _ _ _ _ _|
 D4 D4 | !fermata!E16 |] %54
w: Hawk, did|strike.|
V:3
 [Cg]2 |[M:4/2] z16 | z8 c8 | A6 F2 c8 | z16 | z4 G8 E4- | E4 C4 G8 | z4 G4 A2 B2 c4- | %8
w: ||The|gree- dy Hawk,||the gree-|* dy Hawk|with sud- den sight|
 c2 B2 A2 G2 A4 G4 | d4 d4 G8- | G8 z4 G4 | C8 z4 E4 | F4 G4 A8- | A4 G4 F4 F4 | E16 | E8 ^F8 | %16
w: _ of _ _ _ _|lure, doth stoop,|_ doth|stoop in|hope to have,|_ her wish- ed|prey,|her wish-|
 G8 D8 | z8 z4 G4 | E6 C2 G3 F E2 D2 | C4 c4 B6 G2 | d3 c B2 A2 G8- | G8 z4 G4 | D8 E8 | %23
w: ed prey,|so|ma- ny men do _ _|stoop, so ma- ny|men do _ _ stoop|_ to|sights un-|
 D4 D4 G3 B A4 | G8 z8 | z4 G4 c3 e d4 | c8 C4 E4- | E4 D4 G8 | E8 D8 | D8 G8- | G16 | z8 z4 G4 | %32
w: sure, and cour- te- ous|speech,|and cour- te- ous|speech doth keep|_ them at|the bay,|the bay,|_|let|
 B4 c4 d8 | z4 c4 B6 G2 | c4 A4 G8 | A8 E8 | z4 A4 c8 | z4 B4 c4 d4 | e2 f2 g6 f2 e2 d2 | %39
w: them be- ware,|lest friend- ly|looks be like,|be like,|the lure,|where- at the|soar- * ing _ _ _|
 c2 B2 A2 G2 F4 G4- | G2 F2 E2 D2 C2 E2 D4 | C4 C4 G8 | z8 z4 G4 | c6 c2 d4 c2 B2 | %44
w: _ _ _ _ Hawk did|_ _ _ _ _ _ _|strike, did strike,|where-|at the soar- ing _|
 A2 G2 F2 E2 F6 G2 | A8 z4 E4 | F4 G4 A2 B2 c4- | c2 B2 A2 G2 F2 E2 D4 | F4 G6 F2 E4 | D8 A8 | %50
w: _ _ _ _ Hawk did|strike, where-|at the soar- * ing|_ _ _ _ _ _ _|Hawk did _ _|strike, did|
 G4 G4 G6 A2 | B2 c2 d4 A8 | G8 | !fermata!C16 |] %54
w: strike, the soar- *|* * ing Hawk,|did|strike.|

